X: 18609
T: I Will If I Can
R: jig
M: 6/8
K: Gmajor
GBd gdB|ded d2 c|~B3 BAG|FAA AFD|
GBd gdB|def g2 f|edc BcA|BGG G2:|
g2 d edB|ded def|g2 d edB|ABA ABd|
g2 d edB|def g2 f|edc BcA|BGF G2:|

